X: 29274
T: New Mown Meadows, The
R: reel
M: 4/4
K: Edorian
|:BEED E2FA|B2cA BAFA|BE E2 FDFG|A2BA FEFA|
BEED E2FA|BdcA BAFA|d2dB c2cB|1 AcBA FEFA:|2 AcBA FAdf||
|:e2ce fece|e2cA BAFA|e2ce fecA|B2cA BAFA|
e2ce fece|e2cA BAFA|d2dB c2cB|1 AcBA FAdf:|2 AcBA FEFA||

